X: 32057
T: Pelee Island
R: jig
M: 6/8
K: Gdorian
|:D|"Gm"G2 B "F"AGF|"Dm"D2 F "F"CB,C|"Gm"G2 B "F"AGF|"F"c3 {d}cBc|
"Gm"dgg {a}gfd|"F"cAF FAc|"Bb"B2 d "F"cAF|"Gm"G3 G2:|
|:A|"Gm"B2 B BcB|"Dm"Aff "F"fec|"Gm"dgg g2 a|"F"f3 {g}fec|
"Gm"dgg {a}gfd|"F"cAF FAc|"Bb"B2 d "F"cAF|"Gm"G3 G2:|

